X:1
T:The High Road to Linton
C:Anonymous; arr. T. S. Macdonald
M:C|
K:A
%%staves { 1 2 }
V:1
"A"ceef a2 ae | f2 fe a2 ae | ceef a2 ae | "D"faec "E"B2 "A"A2 :|
|: "A"cee=g "D"fddf | "A"ecce "E"fBBd | "A"cee=g "D"fddf | "A"ecac "E"B2 "A"A2 :|
|: "A"a2 a2 ef a2 | efae faef | a2 a2 efae | "D"faec "E"B2 "A"A2 :|
|: "A"c2 ec "D"d2 fd | "A"c/c/c ec "E"BcdB | "A"c2 ec "D"defg | "A"afec "E"B2 "A"A2 :]
V:2 clef=treble
L:1/4
"0"A A2 A | "0"A A2 A | "0"A A2 A | "0"D D "1"E "0"A :|
|: "1"A, A, "0"D D | "1"A, A, "2"B, B, |"1"A, A, "0"D D | "1"A, A, "1"E "0"A :|
|: "0"A A2 A | "0"A A2 A  | "0"A A2 A | "0"D D "1"E "0"A :|
|: "1"A, A, "0"D D | "1"A, A, "2"B, B, |"1"A, A, "0"D D | "1"A, A, "1"E "0"A :|
